static/img/Vk.svg

<svg width="40" height="40" viewBox="0 0 40 40" fill="none" xmlns="http://www.w3.org/2000/svg">
<path d="M20 0C8.95417 0 0 8.95417 0 20C0 31.0458 8.95417 40 20 40C31.0458 40 40 31.0458 40 20C40 8.95417 31.0458 0 20 0ZM27.6917 22.5646C27.6917 22.5646 29.4604 24.3104 29.8958 25.1208C29.9083 25.1375 29.9146 25.1542 29.9187 25.1625C30.0958 25.4604 30.1375 25.6917 30.05 25.8646C29.9042 26.1521 29.4042 26.2938 29.2333 26.3063H26.1083C25.8917 26.3063 25.4375 26.25 24.8875 25.8708C24.4646 25.575 24.0479 25.0896 23.6417 24.6167C23.0354 23.9125 22.5104 23.3042 21.9813 23.3042C21.914 23.3041 21.8472 23.3146 21.7833 23.3354C21.3833 23.4646 20.8708 24.0354 20.8708 25.5562C20.8708 26.0312 20.4958 26.3042 20.2313 26.3042H18.8C18.3125 26.3042 15.7729 26.1333 13.5229 23.7604C10.7687 20.8542 8.28958 15.025 8.26875 14.9708C8.1125 14.5937 8.43542 14.3917 8.7875 14.3917H11.9437C12.3646 14.3917 12.5021 14.6479 12.5979 14.875C12.7104 15.1396 13.1229 16.1917 13.8 17.375C14.8979 19.3042 15.5708 20.0875 16.1104 20.0875C16.2116 20.0863 16.311 20.0606 16.4 20.0125C17.1042 19.6208 16.9729 17.1104 16.9417 16.5896C16.9417 16.4917 16.9396 15.4667 16.5792 14.975C16.3208 14.6187 15.8812 14.4833 15.6146 14.4333C15.7225 14.2844 15.8647 14.1636 16.0292 14.0812C16.5125 13.8396 17.3833 13.8042 18.2479 13.8042H18.7292C19.6667 13.8167 19.9083 13.8771 20.2479 13.9625C20.9354 14.1271 20.95 14.5708 20.8896 16.0896C20.8708 16.5208 20.8521 17.0083 20.8521 17.5833C20.8521 17.7083 20.8458 17.8417 20.8458 17.9833C20.825 18.7562 20.8 19.6333 21.3458 19.9937C21.417 20.0384 21.4993 20.0622 21.5833 20.0625C21.7729 20.0625 22.3437 20.0625 23.8896 17.4104C24.3663 16.5568 24.7806 15.6697 25.1292 14.7562C25.1604 14.7021 25.2521 14.5354 25.3604 14.4708C25.4404 14.4301 25.529 14.4093 25.6187 14.4104H29.3292C29.7333 14.4104 30.0104 14.4708 30.0625 14.6271C30.1542 14.875 30.0458 15.6312 28.3521 17.925L27.5958 18.9229C26.0604 20.9354 26.0604 21.0375 27.6917 22.5646Z" fill="white"/>
</svg>

<svg xmlns="http://www.w3.org/2000/svg" width="40" height="40" fill="none"><path fill="#fff" d="M20 0C8.954 0 0 8.954 0 20s8.954 20 20 20 20-8.954 20-20S31.046 0 20 0m7.692 22.565s1.768 1.745 2.204 2.556q.017.027.023.042c.177.297.218.529.131.702-.146.287-.646.429-.817.441h-3.125c-.216 0-.67-.056-1.22-.435-.423-.296-.84-.781-1.246-1.254-.607-.704-1.132-1.313-1.66-1.313a.6.6 0 0 0-.199.031c-.4.13-.912.7-.912 2.221 0 .475-.375.748-.64.748H18.8c-.488 0-3.027-.17-5.277-2.544-2.754-2.906-5.233-8.735-5.254-8.79-.156-.376.166-.578.518-.578h3.157c.42 0 .558.256.654.483.112.265.525 1.317 1.202 2.5 1.098 1.93 1.77 2.712 2.31 2.712a.6.6 0 0 0 .29-.075c.704-.391.573-2.902.542-3.422 0-.098-.002-1.123-.363-1.615-.258-.356-.698-.492-.964-.542.107-.149.25-.27.414-.352.483-.241 1.354-.277 2.219-.277h.481c.938.013 1.18.073 1.519.159.687.164.702.608.642 2.127a33 33 0 0 0-.038 1.493c0 .125-.006.259-.006.4-.021.773-.046 1.65.5 2.01a.45.45 0 0 0 .237.07c.19 0 .76 0 2.307-2.653q.715-1.281 1.24-2.654c.03-.054.122-.22.23-.285a.56.56 0 0 1 .259-.06h3.71c.404 0 .681.06.733.216.092.248-.016 1.004-1.71 3.298l-.756.998c-1.536 2.012-1.536 2.115.096 3.642"/></svg>
